X:79
T:King's Health, The
T:Deoch slaint' an Righ
R:Slow Air
S:Simon Fraser Collection
N:No.109
O:Scottish
M:3/4
L:1/8
Q:1/4=120
K:D
B>c B3A|B>c d3e|d>e f3e|d>c d3B|A>A B3A|B>d e3B|d>e d3c|
d>e f3g|f>B B3^d|e>f e3c|d>e f3e|d>B A3G|F>G A3g|f>e d3c|
B>A F3E|F>^A B3 B||d>e d3D|d>e f3e|d>D f3e|d>c d3B|e>f e3^d|
e>f g3b|a>g f3e|d>e f3g|f>B B3^d|e>f e3c|d>e f3e|d>B A3G|
F>G A3g|f>e d3c|B>A F3E|F>^A (B3 B)||

